X: 62
T: Wing Commander Donald MacKenzie's Reel
C:Phil Cunningham
M:C
L:1/8
K:A
cE (3EEE cEBE | AFFE FAEA  | FE (3EEE FGAB| cBAB cffe|
cE (3EEE cEBE| AFFE FAEA| FE (3EEE FGAB|1 ceBc A3 B :|2 ceBc A2 (3EFG||
|: aAfe c2 Bc| AF (3efg ABce | (3fga ba fbaf| ecAB cefg|
aAfe c2 Bc| AF (3EFG ABce| (3fga ba fbaf| ecBc A2 :|

%%sep 2 1 500

